assets/images/vk.svg

<svg width="36" height="36" viewBox="0 0 36 36" fill="none" xmlns="http://www.w3.org/2000/svg">
<path d="M17.9955 35.13C8.6195 35.13 0.963867 27.3864 0.963867 17.9026C0.963867 8.4189 8.6195 0.675293 17.9955 0.675293C27.3715 0.675293 35.0271 8.4189 35.0271 17.9026C35.0271 27.3864 27.3715 35.13 17.9955 35.13ZM17.9955 1.9804C9.30765 1.9804 2.25414 9.11495 2.25414 17.9026C2.25414 26.6903 9.30765 33.8249 17.9955 33.8249C26.6834 33.8249 33.7369 26.6903 33.7369 17.9026C33.7369 9.11495 26.6834 1.9804 17.9955 1.9804Z" fill="white"/>
<path d="M26.9413 22.6016C26.9413 22.5145 26.8552 22.5145 26.8552 22.5145C26.5112 21.9055 25.909 21.2094 24.9628 20.3393C24.5328 19.9043 24.2747 19.6433 24.1887 19.5563C24.0166 19.2952 23.9306 19.0342 24.0166 18.7732C24.1027 18.5992 24.3607 18.1641 24.8768 17.4681C25.1349 17.12 25.3929 16.859 25.479 16.598C26.5972 15.0318 27.1133 14.0747 26.9413 13.6397L26.8552 13.5527C26.8552 13.4657 26.6832 13.4657 26.5112 13.3787C26.3391 13.2917 26.1671 13.2917 25.909 13.3787H23.0704C22.9844 13.3787 22.9844 13.3787 22.8984 13.3787C22.8124 13.3787 22.8124 13.3787 22.8124 13.3787H22.7264L22.6404 13.4657C22.6404 13.5527 22.5543 13.5527 22.5543 13.6397C22.2103 14.4228 21.8662 15.2059 21.5221 15.9019C21.2641 16.337 21.092 16.685 20.834 16.946C20.6619 17.207 20.4899 17.4681 20.3179 17.6421C20.1458 17.8161 20.0598 17.9031 19.9738 17.9901C19.8878 18.0771 19.8018 18.0771 19.7157 18.0771C19.6297 18.0771 19.6297 18.0771 19.5437 18.0771C19.4577 17.9901 19.3717 17.9031 19.2856 17.8161C19.1996 17.7291 19.1996 17.5551 19.1996 17.4681C19.1996 17.2941 19.1996 17.207 19.1996 17.033C19.1996 16.946 19.1996 16.772 19.1996 16.511C19.1996 16.337 19.1996 16.1629 19.1996 16.0759C19.1996 15.8149 19.1996 15.5539 19.1996 15.2059C19.1996 14.9448 19.1996 14.6838 19.1996 14.5098C19.1996 14.3358 19.1996 14.1618 19.1996 13.9877C19.1996 13.8137 19.1996 13.6397 19.1996 13.5527C19.1996 13.4657 19.1136 13.3787 19.1136 13.2047C19.0276 13.1177 19.0276 13.0307 18.9416 12.9436C18.8556 12.8566 18.7695 12.8566 18.5975 12.7696C18.2534 12.6826 17.8233 12.6826 17.2212 12.6826C16.0169 12.6826 15.2428 12.7696 14.8127 12.9436C14.6407 13.0307 14.5546 13.1177 14.4686 13.2047C14.3826 13.3787 14.2966 13.4657 14.3826 13.4657C14.8127 13.5527 15.0707 13.6397 15.2428 13.9007L15.3288 13.9877C15.4148 14.0747 15.4148 14.2488 15.5008 14.4228C15.5869 14.6838 15.5869 14.8578 15.5869 15.1188C15.5869 15.6409 15.5869 15.9889 15.5869 16.337C15.5869 16.685 15.5008 16.946 15.5008 17.12C15.5008 17.2941 15.4148 17.4681 15.3288 17.5551C15.2428 17.6421 15.2428 17.7291 15.2428 17.8161C15.2428 17.8161 15.2428 17.8161 15.1568 17.9031C15.0707 17.9031 14.9847 17.9901 14.8987 17.9901C14.8127 17.9901 14.7267 17.9031 14.5546 17.8161C14.3826 17.7291 14.2966 17.5551 14.1245 17.4681C13.9525 17.2941 13.7805 17.033 13.6084 16.772C13.4364 16.511 13.2644 16.1629 13.0923 15.7279L12.8343 15.4669C12.7483 15.2929 12.5762 15.0318 12.4042 14.6838C12.2321 14.3358 12.0601 13.9877 11.9741 13.6397C11.8881 13.4657 11.8021 13.3787 11.716 13.2917H11.63C11.63 13.2917 11.544 13.2047 11.458 13.2047C11.372 13.2047 11.2859 13.1177 11.1999 13.1177H8.44734C8.18929 13.1177 8.01725 13.2047 7.84521 13.2917V13.3787C7.84521 13.3787 7.84521 13.4657 7.84521 13.5527C7.84521 13.6397 7.84522 13.7267 7.93123 13.8137C8.36132 14.7708 8.79142 15.6409 9.22151 16.511C9.6516 17.3811 10.0817 18.0771 10.4258 18.5992C10.7698 19.1212 11.1139 19.6433 11.458 20.0783C11.8021 20.5134 12.0601 20.8614 12.1461 20.9484C12.2321 21.1224 12.3182 21.2094 12.4042 21.2094L12.6622 21.4704C12.8343 21.6445 13.0923 21.8185 13.3504 22.0795C13.6945 22.3405 14.0385 22.5145 14.3826 22.7756C14.7267 22.9496 15.1568 23.2106 15.6729 23.2976C16.189 23.4716 16.6191 23.4716 17.1352 23.4716H18.2534C18.5115 23.4716 18.6835 23.3846 18.7695 23.2106V23.1236C18.7695 23.1236 18.8556 23.0366 18.8556 22.9496C18.8556 22.8626 18.8556 22.7756 18.8556 22.6886C18.8556 22.4275 18.8556 22.1665 18.9416 21.9055C19.0276 21.6445 19.0276 21.4704 19.1136 21.3834C19.1996 21.2964 19.2856 21.2094 19.2856 21.1224C19.3717 21.0354 19.4577 21.0354 19.4577 20.9484H19.5437C19.7157 20.8614 19.8878 20.9484 20.1458 21.1224C20.3179 21.2964 20.5759 21.4705 20.748 21.7315C20.92 21.9925 21.178 22.2535 21.4361 22.5145C21.6942 22.7756 21.9522 23.0366 22.1242 23.1236L22.2963 23.2106C22.4683 23.2976 22.6404 23.3846 22.8124 23.4716C22.9844 23.5586 23.2425 23.5586 23.3285 23.5586H25.823C26.0811 23.5586 26.2531 23.5586 26.4252 23.4716C26.5972 23.3846 26.6832 23.2976 26.6832 23.2106C26.6832 23.1236 26.6832 23.0366 26.6832 22.8626C26.9413 22.6886 26.9413 22.6016 26.9413 22.6016Z" fill="white"/>
</svg>

<svg width="36" height="36" fill="none" xmlns="http://www.w3.org/2000/svg"><path d="M17.995 35.13C8.62 35.13.965 27.386.965 17.903.964 8.419 8.619.675 17.996.675c9.376 0 17.031 7.744 17.031 17.228 0 9.483-7.655 17.227-17.032 17.227zm0-33.15c-8.687 0-15.74 7.135-15.74 15.923 0 8.787 7.053 15.922 15.74 15.922 8.688 0 15.742-7.135 15.742-15.922 0-8.788-7.054-15.923-15.742-15.923z" fill="#fff"/><path d="M26.941 22.602c0-.087-.086-.087-.086-.087-.344-.61-.946-1.306-1.892-2.176l-.774-.783c-.172-.26-.258-.522-.172-.783.086-.174.344-.609.86-1.305.258-.348.516-.609.602-.87 1.118-1.566 1.634-2.523 1.462-2.958l-.086-.087c0-.087-.172-.087-.344-.174s-.344-.087-.602 0h-3.183l-.086.087c0 .087-.086.087-.086.174a56.834 56.834 0 01-1.032 2.262c-.258.435-.43.783-.688 1.044-.172.261-.344.522-.516.696l-.344.348c-.086.087-.172.087-.258.087h-.172l-.258-.26c-.086-.088-.086-.262-.086-.349v-3.915c0-.087-.086-.174-.086-.348-.086-.087-.086-.174-.172-.261-.086-.087-.172-.087-.345-.174-.344-.087-.774-.087-1.376-.087-1.204 0-1.978.087-2.408.26a1.191 1.191 0 00-.344.262c-.086.174-.172.26-.086.26.43.088.688.175.86.436l.086.087c.086.087.086.26.172.435.086.26.086.435.086.696v1.218c0 .348-.086.609-.086.783a.669.669 0 01-.172.435c-.086.087-.086.174-.086.261l-.086.087c-.086 0-.172.087-.258.087-.086 0-.172-.087-.344-.174s-.258-.26-.43-.348c-.172-.174-.345-.435-.517-.696a5.827 5.827 0 01-.516-1.044l-.258-.261c-.086-.174-.258-.435-.43-.783-.172-.348-.344-.696-.43-1.044a1.198 1.198 0 00-.258-.348h-.086s-.086-.087-.172-.087-.172-.087-.258-.087H8.447c-.258 0-.43.087-.602.174v.261c0 .087 0 .174.086.26.43.958.86 1.828 1.29 2.698.43.87.86 1.566 1.205 2.088.344.522.688 1.044 1.032 1.48.344.434.602.782.688.87.086.173.172.26.258.26l.258.261c.172.175.43.349.688.61.345.26.689.435 1.033.696.344.174.774.435 1.29.522.516.174.946.174 1.462.174h1.118c.259 0 .43-.087.517-.261v-.087s.086-.087.086-.174v-.261c0-.262 0-.523.086-.784.086-.26.086-.435.172-.522.086-.087.172-.174.172-.26.086-.088.172-.088.172-.175h.086c.172-.087.344 0 .602.174.172.174.43.349.602.61.172.26.43.521.688.783.258.26.516.522.688.609l.172.087.516.26c.172.088.43.088.516.088h2.495c.258 0 .43 0 .602-.087s.258-.174.258-.261v-.348c.258-.174.258-.261.258-.261z" fill="#fff"/></svg>
